X: 28764
T: My Lagan Love
R: polka
M: 2/4
K: Emixolydian
3Bc/d/|e3B AG/E/|D3E GA/B/|A3G (E>E|E3)B/c/ dc/d/|
e3B AG/E/|D3E GA/B/|A3G E>E|E3E GA|
c3B BA/G/|A4 cd|e3A cB/c/|^de e_g e=d|
e3B (3AGE|D3E GA/B/|A3G E>E|E4||

